X: 33746
T: Rattlebones
R: jig
M: 6/8
K: Gmajor
dBB BAG|AGA BGE|DGG GBd|edB A3|
dBB BAG|AGA BGE|DGG GAB|AGF G3:|
GBd g2d|edB BAG|GBd g2d|edB A2 A|
GBd g2d|edB ABd|ege dBG|AGA G3:|

